public/logosfacebook.svg

<svg width="41" height="40" viewBox="0 0 41 40" fill="none" xmlns="http://www.w3.org/2000/svg">
<g clip-path="url(#clip0_1852_117)">
<path d="M40 20C40 29.5306 33.1622 37.4647 24.125 39.1635V26.2812H28.2852H28.7143L28.7794 25.857L29.6661 20.0758L29.7544 19.5H29.1719H24.125V16.2484C24.125 15.5302 24.3017 14.8825 24.7011 14.4206C25.0888 13.9723 25.7506 13.625 26.8844 13.625H29.4062H29.9062V13.125V8.20312V7.78123L29.4904 7.71025L29.4062 8.20312C29.4904 7.71025 29.4903 7.71024 29.4903 7.71023L29.4901 7.71021L29.4896 7.71013L29.4881 7.70986L29.4825 7.70892L29.4616 7.70544L29.3825 7.6926C29.3138 7.68162 29.2138 7.66605 29.0873 7.64742C28.8342 7.61017 28.4745 7.56063 28.0457 7.51111C27.1901 7.41232 26.05 7.3125 24.9292 7.3125C22.544 7.3125 20.5168 8.03718 19.0853 9.47005C17.6532 10.9034 16.875 12.9877 16.875 15.5937V19.5H12.2969H11.7969V20V25.7812V26.2812H12.2969H16.875V39.1635C7.8378 37.4647 1 29.5305 1 20C1 9.23036 9.73051 0.5 20.5 0.5C31.2695 0.5 40 9.23052 40 20Z" fill="#1877F2" stroke="white"/>
<path d="M28.2852 25.7812L29.1719 20H23.625V16.2484C23.625 14.6666 24.3998 13.125 26.8844 13.125H29.4062V8.20312C29.4062 8.20312 27.1175 7.8125 24.9292 7.8125C20.3609 7.8125 17.375 10.5813 17.375 15.5938V20H12.2969V25.7812H17.375V39.757C18.4088 39.919 19.4536 40.0003 20.5 40C21.5464 40.0003 22.5912 39.9191 23.625 39.757V25.7812H28.2852Z" fill="white"/>
</g>
<defs>
<clipPath id="clip0_1852_117">
<rect width="40" height="40" fill="white" transform="translate(0.5)"/>
</clipPath>
</defs>
</svg>

<svg width="41" height="40" fill="none" xmlns="http://www.w3.org/2000/svg"><g clip-path="url(#a)"><path d="M40 20c0 9.53-6.838 17.465-15.875 19.163V26.282h4.59l.064-.424.887-5.781.088-.576h-5.629v-3.252c0-.718.177-1.366.576-1.827.388-.449 1.05-.796 2.183-.796h3.022V7.781l-.416-.07-.084.492.084-.493h-.002l-.005-.001-.021-.004-.08-.012a34.053 34.053 0 0 0-1.337-.181 28.068 28.068 0 0 0-3.116-.2c-2.385 0-4.412.725-5.844 2.158-1.432 1.433-2.21 3.518-2.21 6.124V19.5h-5.078v6.781h5.078v12.883C7.838 37.463 1 29.53 1 20 1 9.23 9.73.5 20.5.5S40 9.23 40 20z" fill="#1877F2" stroke="#fff"/><path d="M28.285 25.781 29.172 20h-5.547v-3.752c0-1.581.775-3.123 3.26-3.123h2.521V8.203s-2.288-.39-4.477-.39c-4.568 0-7.554 2.768-7.554 7.78V20h-5.078v5.781h5.078v13.976a20.148 20.148 0 0 0 6.25 0V25.781h4.66z" fill="#fff"/></g><defs><clipPath id="a"><path fill="#fff" transform="translate(.5)" d="M0 0h40v40H0z"/></clipPath></defs></svg>
